images_sukapura_svg/cmd/lc_framelinecolor.svg

<svg viewBox="0 0 24 24" xmlns="http://www.w3.org/2000/svg" xmlns:xlink="http://www.w3.org/1999/xlink"><linearGradient id="a"><stop offset="0" stop-color="#0040dd"/><stop offset="1" stop-color="#0a84ff"/></linearGradient><linearGradient id="b" gradientUnits="userSpaceOnUse" x1="1" x2="1" xlink:href="#a" y1="19" y2="2"/><linearGradient id="c" gradientTransform="translate(2 1)" gradientUnits="userSpaceOnUse" x1="6" x2="6" xlink:href="#d" y1="17" y2="8"/><linearGradient id="d" gradientTransform="translate(-25.830508 -3.59322)" gradientUnits="userSpaceOnUse" x1="14" x2="13.79661" xlink:href="#a" y1="22" y2="2.135593"/><linearGradient id="e" gradientTransform="matrix(.8868827 -.51204201 .51204201 .88688277 .387396 10.016944)" gradientUnits="userSpaceOnUse" x1="11.373043" x2="13.375103" xlink:href="#d" y1="9.467584" y2="6.949374"/><path d="m3 2c-.554 0-1 .446-1 1v16c0 .554.446 1 1 1v-1-16h18 1c0-.554-.446-1-1-1z" fill="url(#b)"/><path d="m11.647722 18.717379 7.209231-4.306748-4.360125-7.9250906-7.587737 4.4471466z" fill="#fff" fill-rule="evenodd" stroke-width=".763845"/><ellipse cx="12" cy="19.725483" fill="none" rx="10" ry="2.274613"/><path d="m11 9.0000003h-5c-1 0-1 .217546-1 2.2764777v5.723522c0 1 2 1 2 0v-6z" fill="url(#c)" fill-rule="evenodd"/><g fill="none" stroke="#808080"><path d="m6.909091 10.932687 4.078179 7.170615c.313245.500364.816851.692704 1.302323.437273l5.918596-3.468868c.450197-.311153.658977-.895553.371476-1.407367l-4.082837-7.1787998z"/><path d="m8.5306856 12.820002 6.6506224-4.1570533.967501 1.6757613-6.6506232 4.157053z" fill="url(#e)" fill-rule="evenodd" stroke="none"/><g stroke="#69696e" stroke-linecap="round"><ellipse cx="4.962672" cy="16.187546" fill="#fff" rx="1.515379" ry="1.505583" stroke-width=".864789" transform="matrix(.86821741 -.49618397 .50382625 .86380502 0 0)"/><path d="m12.488244 9.8063594.02542-3.7263907c.01887-2.7659893 5.011756-2.7853553 5.011756.014335v3.9056963"/></g></g></svg>

<?xml version="1.0" encoding="UTF-8" standalone="no"?>
<svg
   xmlns:dc="http://purl.org/dc/elements/1.1/"
   xmlns:cc="http://creativecommons.org/ns#"
   xmlns:rdf="http://www.w3.org/1999/02/22-rdf-syntax-ns#"
   xmlns:svg="http://www.w3.org/2000/svg"
   xmlns="http://www.w3.org/2000/svg"
   xmlns:xlink="http://www.w3.org/1999/xlink"
   xmlns:sodipodi="http://sodipodi.sourceforge.net/DTD/sodipodi-0.dtd"
   xmlns:inkscape="http://www.inkscape.org/namespaces/inkscape"
   viewBox="0 0 24 24"
   version="1.1"
   id="svg10"
   sodipodi:docname="lc_framelinecolor.svg"
   inkscape:export-filename="/home/rizmut/Documents/Rizmut/Github/libreoffice-style-sukapura/images_sukapura/cmd/lc_framelinecolor.png"
   inkscape:export-xdpi="96"
   inkscape:export-ydpi="96"
   inkscape:version="0.92.3 (2405546, 2018-03-11)">
  <metadata
     id="metadata16">
    <rdf:RDF>
      <cc:Work
         rdf:about="">
        <dc:format>image/svg+xml</dc:format>
        <dc:type
           rdf:resource="http://purl.org/dc/dcmitype/StillImage" />
        <dc:title></dc:title>
      </cc:Work>
    </rdf:RDF>
  </metadata>
  <defs
     id="defs14">
    <linearGradient
       gradientTransform="translate(-11,-1)"
       id="a"
       gradientUnits="userSpaceOnUse"
       x1="14"
       x2="13.79661"
       y1="22"
       y2="2.1355929">
      <stop
         offset="0"
         stop-color="#0040dd"
         id="stop1492" />
      <stop
         offset="1"
         stop-color="#0a84ff"
         id="stop1494" />
    </linearGradient>
    <linearGradient
       inkscape:collect="always"
       xlink:href="#a"
       id="linearGradient1481"
       x1="12"
       y1="20"
       x2="12"
       y2="3"
       gradientUnits="userSpaceOnUse" />
    <linearGradient
       inkscape:collect="always"
       xlink:href="#a-3"
       id="linearGradient870"
       x1="6"
       y1="17"
       x2="6"
       y2="8"
       gradientUnits="userSpaceOnUse"
       gradientTransform="translate(2,1)" />
    <linearGradient
       gradientTransform="translate(-25.830508,-3.5932203)"
       id="a-3"
       gradientUnits="userSpaceOnUse"
       x1="14"
       x2="13.79661"
       y1="22"
       y2="2.1355929">
      <stop
         offset="0"
         stop-color="#0040dd"
         id="stop2-6" />
      <stop
         offset="1"
         stop-color="#0a84ff"
         id="stop4-7" />
    </linearGradient>
    <linearGradient
       inkscape:collect="always"
       xlink:href="#a-3"
       id="linearGradient863"
       x1="11.373043"
       y1="9.4675837"
       x2="13.375103"
       y2="6.9493737"
       gradientUnits="userSpaceOnUse"
       gradientTransform="matrix(0.8868827,-0.51204201,0.51204201,0.88688277,0.38739569,10.016944)" />
  </defs>
  <sodipodi:namedview
     pagecolor="#ffffff"
     bordercolor="#666666"
     borderopacity="1"
     objecttolerance="10"
     gridtolerance="10"
     guidetolerance="10"
     inkscape:pageopacity="0"
     inkscape:pageshadow="2"
     inkscape:window-width="1366"
     inkscape:window-height="685"
     id="namedview12"
     showgrid="true"
     inkscape:snap-global="true"
     inkscape:zoom="9.8333333"
     inkscape:cx="1.9151492"
     inkscape:cy="17.265369"
     inkscape:window-x="0"
     inkscape:window-y="0"
     inkscape:window-maximized="1"
     inkscape:current-layer="svg10">
    <inkscape:grid
       type="xygrid"
       id="grid823"
       spacingx="0.5"
       spacingy="0.5"
       empspacing="2" />
  </sodipodi:namedview>
  <path
     style="fill-opacity:1;fill:url(#linearGradient1481)"
     d="M 3 2 C 2.446 2 2 2.446 2 3 L 2 19 C 2 19.554 2.446 20 3 20 L 3 19 L 3 3 L 21 3 L 22 3 C 22 2.446 21.554 2 21 2 L 3 2 z "
     id="path4" />
  <g
     id="g2234">
    <path
       id="path2-2"
       d="M 11.647722,18.717379 18.856953,14.410631 14.496828,6.4855404 6.909091,10.932687 Z"
       style="fill:#ffffff;fill-rule:evenodd;stroke-width:0.76384532"
       inkscape:connector-curvature="0" />
    <ellipse
       id="ellipse4"
       ry="2.2746129"
       rx="10"
       cy="19.725483"
       cx="12"
       style="fill:none" />
    <path
       style="fill:url(#linearGradient870);fill-opacity:1;fill-rule:evenodd"
       id="path6"
       d="M 11,9.0000003 H 6 c -1,0 -1,0.217546 -1,2.2764777 V 17 c 0,1 2,1 2,0 v -6 z"
       inkscape:connector-curvature="0" />
    <g
       id="g14"
       style="fill:none;stroke:#808080">
      <path
         id="path12"
         d="m 6.909091,10.932687 4.078179,7.170615 c 0.313245,0.500364 0.816851,0.692704 1.302323,0.437273 l 5.918596,-3.468868 c 0.450197,-0.311153 0.658977,-0.895553 0.371476,-1.407367 L 14.496828,6.4855402 Z"
         inkscape:connector-curvature="0"
         style="stroke-width:1;stroke-miterlimit:4;stroke-dasharray:none" />
      <path
         sodipodi:nodetypes="ccccc"
         style="fill:url(#linearGradient863);fill-opacity:1;fill-rule:evenodd;stroke:none;stroke-width:1.02408409"
         id="path11"
         d="M 8.5306856,12.820002 15.181308,8.6629487 16.148809,10.33871 9.4981858,14.495763 Z"
         inkscape:connector-curvature="0" />
      <ellipse
         style="fill:#ffffff;fill-opacity:1;stroke:#69696e;stroke-width:0.86478907;stroke-linecap:round;stroke-miterlimit:4;stroke-dasharray:none;stroke-opacity:1"
         id="ellipse8"
         transform="matrix(0.86821741,-0.49618397,0.50382625,0.86380502,0,0)"
         ry="1.5055833"
         rx="1.5153793"
         cy="16.187546"
         cx="4.9626722" />
      <path
         sodipodi:nodetypes="cssc"
         inkscape:connector-curvature="0"
         style="stroke:#69696e;stroke-width:1;stroke-linecap:round;stroke-miterlimit:4;stroke-dasharray:none;stroke-opacity:1"
         id="path10"
         d="m 12.488244,9.8063594 0.02542,-3.7263907 c 0.01887,-2.7659893 5.011756,-2.7853553 5.011756,0.014335 V 10" />
    </g>
  </g>
</svg>
